Adwaita++-Dark/apps/16/codeblocks.svg

<svg height="16" width="16" xmlns="http://www.w3.org/2000/svg">
  <g fill="#e6ddff">
    <path d="m.9 9.4259713v5.0625977c0 .140083.0282155.273263.0792626.394351.0510472.121086.1249034.230096.2163119.321504.091411.09141.2004181.165267.321505.216313.1210879.051048.2542671.079263.3943503.079263h5.3154554v-6.0740287z"/>
    <path d="m15.21328 6.5740284v-5.0625977c0-.1400832-.02822-.2732624-.07926-.3943493-.05105-.1210879-.124907-.2300974-.216315-.3215059-.091412-.0914114-.200419-.1652667-.321505-.2163129-.121088-.0510471-.254267-.0792626-.394351-.0792626h-5.315455v6.0740303z"/>
    <path d="m15.213281 9.4259716v5.0625974c0 .140083-.02821.273263-.07926.394351-.05105.121086-.124904.230096-.216312.321504-.09141.09141-.200419.165267-.321505.216313-.121091.051048-.254271.079263-.394354.079263h-5.315456v-6.0740284z"/>
    <path d="m.9 6.5740284v-5.0625977c0-.1400832.02821546-.2732624.07926261-.3943493.05104719-.1210878.12490439-.2300974.21631289-.3215059.0914113-.0914113.2004181-.1652666.321505-.2163129.1210878-.0510471.254267-.0792626.3943503-.0792626h5.3154553v6.0740303z"/>
  </g>
</svg>

<svg xmlns="http://www.w3.org/2000/svg" width="16" height="16" version="1.1">
 <path fill="#E6DDFF" d="m 0.9,9.4259713 v 5.0625977 c 0,0.140083 0.0282155,0.273263 0.0792626,0.394351 0.0510472,0.121086 0.1249034,0.230096 0.2163119,0.321504 0.091411,0.09141 0.2004181,0.165267 0.321505,0.216313 C 1.6381674,15.471785 1.7713466,15.5 1.9114298,15.5 H 7.2268852 V 9.4259713 Z"/>
 <path fill="#E6DDFF" d="M 15.21328,6.5740284 V 1.5114307 c 0,-0.1400832 -0.02822,-0.2732624 -0.07926,-0.3943493 C 15.08297,0.9959935 15.009113,0.886984 14.917705,0.7955755 14.826293,0.7041641 14.717286,0.6303088 14.5962,0.5792626 14.475112,0.5282155 14.341933,0.5 14.201849,0.5 H 8.886394 v 6.0740303 z"/>
 <path fill="#E6DDFF" d="m 15.213281,9.4259716 v 5.0625974 c 0,0.140083 -0.02821,0.273263 -0.07926,0.394351 -0.05105,0.121086 -0.124904,0.230096 -0.216312,0.321504 -0.09141,0.09141 -0.200419,0.165267 -0.321505,0.216313 C 14.475113,15.471785 14.341933,15.5 14.20185,15.5 H 8.886394 V 9.4259716 Z"/>
 <path fill="#E6DDFF" d="M 0.9,6.5740284 V 1.5114307 C 0.9,1.3713475 0.92821546,1.2381683 0.97926261,1.1170814 1.0303098,0.9959936 1.104167,0.886984 1.1955755,0.7955755 1.2869868,0.7041642 1.3959936,0.6303089 1.5170805,0.5792626 1.6381683,0.5282155 1.7713475,0.5 1.9114308,0.5 h 5.3154553 v 6.0740303 z"/>
</svg>
